X: 277
U:~=!turn!
M:C|
L:1/8
K:C
g) | (a/g/f/e/) (cg) egcg | (a/g/f/e/) (cg) eddg | (a/g/f/e/) (cg) egde | c>AGE C/C/C C :|
(E/F/G) (cG) AGcG | (E/F/G) (ce) eDDF | (E/F/G) (cG) EGca | gede c/c/c (c |]


